X:1
T:Au pays bleu
T:Au pays bleu
T:à Monsieur POL PLANÇON
T:Cécile Chaminade
T:Au pays bleu
T:Charles Fuster
T:Creative Commons copyright waiver (CC0 1.0 Universal)
T:Creative Commons copyright waiver (CC0 1.0 Universal)
T:Creative Commons copyright waiver (CC0 1.0 Universal)
T:Creative Commons copyright waiver (CC0 1.0 Universal)
T:Creative Commons copyright waiver (CC0 1.0 Universal)
T:Creative Commons copyright waiver (CC0 1.0 Universal)
T:Creative Commons copyright waiver (CC0 1.0 Universal)
C:Cécile Chaminade
Z:Charles Fuster
Z:Creative Commons copyright waiver (CC0 1.0 Universal)
%%score 1 { ( 2 4 6 ) | ( 3 5 ) }
L:1/8
Q:1/4=104
M:4/4
K:C
V:1 treble nm="Voice"
V:2 treble nm="Piano"
V:4 treble 
V:6 treble 
V:3 bass 
V:5 bass 
V:1
"^Allegro" z2 | z8[Q:1/4=88] | z8[Q:1/4=104] | z8 |[Q:1/4=96] z4 z2!p![Q:1/4=104] (3G G G | %5
w: ||||C'é- tait là-|
!<(! A2 (3A A A B2 (3B B B!<)! |!mp! A4- A z!p! (3G F E | D2 (3C E G c2 (3B A E | %8
w: bas, au pa- ys clair, tout bai- gné|d’or; _ Dans l’in- fi-|\- ni dé- li- ci- eux, j’er- rais en-|
 F4- F z!f! (3F G A |!<(! B z (3B B B c2 (3c c c!<)! | B4 B2!f! (3B B B | %11
w: cor; _ Je vis sou-|\- dain, de- vant mes pas, ma fi- an-|cé- e, Ma fi- an-|
 e2!>(! (3d c B !breath!d2!>)!"^dim."[Q:1/4=100] (3(cB) A | %12
w: \- cée, un ê- tre doux, doux _ de|
 c2[Q:1/4=94] (3B A G"^poco rit." B-B"^a tempo"!pp! (3A[Q:1/4=104] G F | %13
w: voix et de pen- sé- e. C’é- tait là-|
!<(! A z (3A A A B2 (3B B B!<)! |!mp! A4- A z (3G A _B | d2!<(! (3_B A G !breath!d2 (3B A G!<)! | %16
w: bas, au pa- ys clair, au pa- ys|bleu: _ A deux ge-|\- noux, la con- tem- plant, je fis l’-|
!mf! f4- f z!p! (3A G F | c4- c z!pp! (3_A G F | c4- c z!ppp! (3E E E | %19
w: veu, _ A deux ge-|\- noux, _ je fis l’-|veu, _ C’é- tait là-|
 E z (3E E E E z!<(! (3E E E!<)! |!p! C4- C z!mf! (3B B B | A2 (3c c c (B2 (3G) G G | %22
w: bas au pa- ys clair, au pa- ys|bleu! _ C’é- tait là-|bas au pa- ys clair, au pa- ys|
 _E4- E z!p![Q:1/4=102] (3D D D | G2"^poco rit."[Q:1/4=96] (3D D D B,2 (3A, A, A, | %24
w: bleu, _ En s’a- do-|\- rant on se sen- tait tout prés de|
"^a tempo"[Q:1/4=104] G4- G z!mf! (3G G G | d2 (3B B B c2 (3E E E | (B2 A2 !breath!D2)!f! (3G G G | %27
w: Dieu. _ Des fleurs nais-|\- saient pour em- bau- mer no- tre pas-|sa- * ge, les mu- guets|
 e2 (3d d d (c2 (3E) E E | (B2 A2 !breath!D2)!mf! (3G G G | B2 (3G G G"^poco rit." B2 (3G G G | %30
w: bleus ne mou- raient pas dans son cor-|sa- * ge Nous é- cou-|\- tions au fond des bois gé- mir le|
!>(!"^dim." !fermata!B4- B!>)! z!ppp![Q:1/4=102] (3D D D | G z (3D D D G z[Q:1/4=100] (3D D D | %32
w: cor: _ C’é- tait là-|\- bas au pa- ys bleu tout bai- gné|
"^rit."[Q:1/4=90] G4- G !fermata!z"^a tempo"!ppp![Q:1/4=104] (3G G G | %33
w: d’or. _ Cé- tait là|
!<(! A z (3A A A B2 (3B B B!<)! |!p! A4- A z"^cresc." (3G F E | D2 (3C E G c2 (3B A E | %36
w: \- bas, au pa- ys bleu de mon ma-|tin, _ Au pa- ys|bleu dont j’ai per- du le nom loin-|
!mp! F4- F z"^cresc." (3F G A | B2 (3B B B c2 (3c c c | B4- B z!f! (3B B B | %39
w: tain. _ L’â- me é- tait|gaie, et la beau- té cou- lait des|lè- vres, L’â- me é- tait|
 !breath!e2-"^stringendo"[Q:1/4=106]{/e} (3d c B d2[Q:1/4=108] (3c B A | %40
w: gai  \-   e, Ni dé- ses- poirs, ni tra- hi-|
"^dim." c2"^poco rit."[Q:1/4=104] (3B A G B- B!p![Q:1/4=100] (3A G F | %41
w: sons, ni lour- des fiè- vres. C’é- tait là-|
"^a tempo"!<(! A z[Q:1/4=104] (3A A A B2 (3B B B!<)! |!mp! A4- A z!<(!"^cresc." (3G A _B!<)! | %43
w: \- bas, jeu- nesse en fleur de ma jeu-|nes- se. Ce temps rê-|
 d2!<(! (3_B A G !breath!!tenuto!.d2!<)!!f! (3B A G | (f4 F) z!mf! (3A G F | %45
w: \- vé, que faire hé- las pour qu’il re-|nais- se! L’â- me du|
 c2!p! (3_A G F c2!pp! (3A G F |!<(! c4-!<)!!>(! c!>)! z!ppp! (3E E E | %47
w: monde en ce temps- là ri- ait en-|cor! _ C’é- tait là-|
 E z (3E E E"^poco rit."[Q:1/4=100] E z[Q:1/4=96] (3E E E |[Q:1/4=90] C4- C z z2 |] %49
w: \- bas au pa- ys bleu tout bai- gné|d’or! _|
V:2
!mf! [GB]2 |!<(! [Bd]2 [GB]2"^rit." [Bd]2 [GB]2!<)! |!f! z2!ppp! !fermata![bd']6 | %3
!>(! [B,_EG]2 [B,D]2 [B,_EG]2 [B,D]2!>)! | %4
!pp! z2 ([B_eg]2 !fermata![b_e'g']2)"_leggiero""_con pedale"!p! z2 | %5
!<(! z2 [C=EGA]2 z2 [B,^D=GB]2 | z2 (.[CEGA]2 .[cega]2) z2 | z2 (.[CEGc]2 .[cegc']2) z2 | %8
 z2 (.[CFAc]2 .[cfac']2) z2 | z2 [B,FGB]2 z2 [CFAc]2 | z2 (.[B,FAB]2 .[Bfab]2) z2!<)! | %11
!f! [^G,DE^G]2 [^Gde^g]2!>(! [Acea]2 [ceac']2!>)! |!p! z2 !arpeggio![gb=f'g']2"^poco rit." z4 | %13
 z2 [CEGA]2 z2 [B,^DGB]2 | z2 (.[CEGA]2 .[cega]2) z2 | z2 [DF_Bd]2 z2 [EBce]2 | %16
!f! z2 ([FAcf]2 [fac'f']2) z2 | z2!p! [D_A]2 [d_a]2 z2 | %18
 z2!pp! [eg]2!8va(! !arpeggio![g'c''g'']2!8va)! z2 | z2 [CE]2 z2 !arpeggio![GBfg]2 | %20
!p! z2 [cegc'-]2!8va(! [c'e'g'c'']!8va)! z!mf! ([Bd]2 | [Ac]2 [c_e]2!<(! [Bd]2) [Gg]2!<)! | %22
!f! !>![A^f]6!p!"_m.g." [Bd]2 | ([GB]2 [DG]2"^poco rit."[I:staff +1] [G,D]2 [^F,CD]2) | %24
"^a tempo" ([D,G,B,]2 [G,B,D]2[I:staff -1] !tenuto!.[B,DG]2!mf! [GB]2) | ([_Ad]2 [FB]2 [Gc]2 E2) | %26
 (B2 A2 D2)!f! [Gg]2 |!ff!!>(! (!>![ee']2 [dd']2 [cgc']2 [Ee]2)!>)! | %28
!ff!!>(! (!>![Bb]2 [Aa]2!>)! [GBd]2)!f! !>![GB]2 | %29
 !>![Bd]2 !>![GB]2"^poco rit." !>![Bd]2 !>![GB]2 | z2!pp!!>(! !fermata![gbd']4-!>)!!ppp! [gbd']2 | %31
 [B,_EG]2 [B,D]2 [B,EG]2 [B,D]2 |!ppp!!>(! z2"^rit." [B_eg]2!>)! [b_e'g']2"^a tempo"!pp! z2 | %33
!<(! z2 [CEGA]2 z2 [B,^DGB]2!<)! |!p! z2 (.[CEGA]2 .[cega]2)"_cresc." z2 | %35
 z2 (.[CEGc]2 .[cegc']2) z2 |!mp! z2 (.[CFAc]2 .[cfac']2) z2 |!<(! z2 [B,FGB]2 z2 [CFAc]2 | %38
 z2 (.[B,FAB]2 .[fab]2) z2!<)! |!f! [^G,DE^G]2 [Gde^g]2!>(! [Acea]2 [ceac']2 | %40
!p! z2!>)! !arpeggio![gb=f'g']2 z4 |"^a tempo"!p!!<(! z2 [CEGA]2 z2 [B,^DGB]2!<)! | %42
!mp! z2 (.[CEGA]2 .[cega]2)"_cresc." z2 | z2 [DF_Bd]2"_cresc." z2 [EBce]2 | %44
!f! z2 ([FAcf]2 [fac'f']2) z2 | z2!p! ([D_A]2 [d_a]2) z2 | %46
 z2!p! ([eg]2!8va(! !arpeggio![g'c''g'']2)!8va)!!pp! z2 | %47
 z2 [CE]2!ppp!"^poco rit." z2 !arpeggio![GBfg]2 | %48
 z2 !arpeggio![cegc']2!8va(! !arpeggio![c'e'g'c'']2!8va)! z2 |] %49
V:3
[I:staff -1] (3DDD | !>!G2 (3DDD !>!G2 (3DDD |[I:staff +1] x2[I:staff -1] [dg]6 | %3
[I:staff +1] G,2- G,2 G,2- G,2 |"_add dot, like bar 32" [_E,,_E,]6 G,,2 | z2 !>!G,2 z2 !>!G,2 | %6
 z2 G,2- .G,2 z2 | (.A,,,2 .[A,,E,G,]2 .[A,EG]2) z2 | (.D,,2 .[D,A,]2 .[DA]2) z2 | %9
 .D,,2 [D,G,]2 .D,,2 [D,A,]2 | (.D,,2 .[D,A,]2 .[DA]2) z2 | %11
 [E,,,E,,]2 [E,B,E]2 [A,CE]2 [^F,A,CE]2 | z2[I:staff -1] !arpeggio![D=FGB]2[I:staff +1] x4 | %13
 z2 !>!G,2 z2 !>!G,2 | z2 G,2- .G,2 z2 | z2 [F,_B,]2 z2 [G,C]2 | %16
 z2 ([C,F,A,]2[I:staff -1] [CFA]2)[I:staff +1] z2 | z2 [F,C]2[I:staff -1] [Fc]2[I:staff +1] z2 | %18
[K:treble] z2 [Gc]2 !arpeggio![gc'e']2[K:bass] (G,2 | _A,2) z2 [G,,,G,,]2 !arpeggio![G,B,F]2 | %20
 z2 ([G,CE]2[K:treble] [Gceg]) z[I:staff -1] [DG]2 | %21
 [_EG]2 [CG]2 [DG]2[I:staff +1][K:bass] [B,D]2 | z2!pp! .G,,2 .G,,,2 z2 | %23
 D2 B,2 [B,,,B,,]2 [A,,,A,,]2 | [G,,,G,,]6 G,2 |!ped! G,4 G,4!ped-up! | %26
!ped! [G,C]4 [G,B,]2!ped-up!!ped! !>![G,,,G,,]2- | [G,,,G,,]2 [G,,,G,,]4 [G,,,G,,]2!ped-up! | %28
 z2 [G,,,G,,]2 [B,D]2"^m.g."[I:staff -1] !>!D2 | !>!G2 !>!D2 !>!G2 !>!D2 | %30
[I:staff +1] x4 x2 [G,B,D]2 | [_E,G,]2 [D,G,]2 [E,G,]2 [D,G,]2 | [_E,,_E,]6 G,,2 | %33
 z2 !>!G,2 z2 !>!G,2 |!ped! z2 G,2- .G,2!ped-up! z2 | %35
!ped! ([A,,,A,,]2 .[A,,E,G,]2 .[A,EG]2)!ped-up! z2 | %36
!ped! (.D,,2 .[D,A,]2[I:staff -1] .[DA]2)!ped-up![I:staff +1] z2 | .D,,2 [D,G,]2 .D,,2 [D,A,]2 | %38
 (.D,,2 .[D,A,]2[I:staff -1] .[DAB]2)[I:staff +1] z2 | [E,,,E,,]2 [E,B,E]2 [A,CE]2 [^F,A,CE]2 | %40
 x2[I:staff -1] !arpeggio![D=FGB]2[I:staff +1] x4 | z2 !>!G,2 z2 !>!G,2 | z2 G,2- .G,2 z2 | %43
 z2 [F,_B,]2 z2 [G,C]2 | z2 ([F,C]2[I:staff -1] [Fc]2)[I:staff +1] z2 | %45
 z2 ([F,C]2[I:staff -1] [Fc]2)[I:staff +1] z2 | %46
 z2[K:treble] ([Gc]2 !arpeggio![gc'e']2)[K:bass] (G,2 | _A,2) z2 ([G,,,G,,]2 !arpeggio![G,B,F]2) | %48
 z2 !arpeggio![G,CE]2[K:treble] !arpeggio![Gceg]2 z2 |] %49
V:4
 x2 | x8 | [Bd]6"^a tempo"!p! [B,D]2 | x8 | [B,_EG]8 | x8 | x8 | x8 | x8 | x8 | x8 | x8 | %12
 x6"^a tempo" x2 | x8 | x8 | x8 | x8 | x8 | x4!8va(! x2!8va)! x2 | x8 | x4!8va(! x!8va)! x3 | x8 | %22
 !>![C_E^F]6 G2 | x8 | x8 | (=F2 D2 E2 C2) | [_E^F]4 x4 | !>![F_AB]4 [EG]4 | !>![C_E^F]4 x4 | x8 | %30
 !>![GBd]8 | x8 | [B,_EG]8 | x8 | x8 | x8 | x8 | x8 | x8 | x8 | x6 x2 | x8 | x8 | x8 | x8 | x8 | %46
 x4!8va(! x2!8va)! x2 | x8 | x4!8va(! x2!8va)! x2 |] %49
V:5
 x2 | x8 |[I:staff -1] !>!G6[I:staff +1] (3D,D,D, | _E,2 (3D,D,D, _E,2 (3D,D,D, | x8 | %5
 [C,,C,] z z2 G,, z z2 | C,4- C,2 x2 | x8 | x8 | x8 | x8 | x8 | [G,,,G,,]4- [G,,,G,,] z z2 | %13
 [C,,C,] z z2 [G,,,G,,] z z2 | [C,,C,]4- [C,,C,]2 x2 | [C,,C,]4 [C,,C,]4 | %16
 [F,,,F,,]4- [F,,,F,,]2 x2 | x8 |[K:treble] x6[K:bass] x2 | x8 | [C,,,C,,]4[K:treble] x4 | %21
 x6[K:bass] x2 | x8 | x8 | x8 | x8 | x8 | x8 | x8 | x8 | x6 D,2 | x8 | x8 | [C,,C,]2 z2 G,,2 z2 | %34
 C,4- C,2 x2 | x8 | x8 | x8 | x8 | x8 | [G,,,G,,]4- [G,,,G,,] z z2 | [C,,C,]2 z2 [G,,,G,,]2 z2 | %42
 [C,,C,]4- [C,,C,]2 x2 | [C,,C,]2 z2 [C,,C,]2 z2 | [F,,,F,,]4- [F,,,F,,]2 x2 | x8 | %46
 x2[K:treble] x4[K:bass] x2 | x8 | [C,,C,]8[K:treble] |] %49
V:6
 x2 | x8 | x8 | x8 | x8 | x8 | x8 | x8 | x8 | x8 | x8 | x8 | x8 | x8 | x8 | x8 | x8 | x8 | %18
 x4!8va(! x2!8va)! x2 | x8 | x4!8va(! x!8va)! x3 | x8 | x8 | x8 | x8 | x8 | x8 | _a4 x4 | _e4 x4 | %29
 x8 | x8 | x8 | x8 | x8 | x8 | x8 | x8 | x8 | x8 | x8 | x8 | x8 | x8 | x8 | x8 | x8 | %46
 x4!8va(! x2!8va)! x2 | x8 | x4!8va(! x2!8va)! x2 |] %49

